svg/weather/partly_cloud_night_line.svg

<?xml version="1.0" encoding="UTF-8"?>
<svg width="24px" height="24px" viewBox="0 0 24 24" version="1.1" xmlns="http://www.w3.org/2000/svg" xmlns:xlink="http://www.w3.org/1999/xlink">
    <title>partly_cloud_night_line</title>
    <g id="Icon" stroke="none" stroke-width="1" fill="none" fill-rule="evenodd">
        <g id="Weather" transform="translate(-865.000000, -192.000000)">
            <g id="partly_cloud_night_line" transform="translate(865.000000, 192.000000)">
                <path d="M24,0 L24,24 L0,24 L0,0 L24,0 Z M12.5935,23.2578 L12.5819,23.2595 L12.5109,23.295 L12.4919,23.2987 L12.4767,23.295 L12.4057,23.2595 C12.3958,23.2564 12.387,23.259 12.3821,23.2649 L12.378,23.2758 L12.3609,23.7031 L12.3659,23.7235 L12.3769,23.7357 L12.4805,23.8097 L12.4953,23.8136 L12.5071,23.8097 L12.6107,23.7357 L12.6233,23.7197 L12.6267,23.7031 L12.6096,23.2758 C12.6076,23.2657 12.601,23.2593 12.5935,23.2578 Z M12.8584,23.1453 L12.8445,23.1473 L12.6598,23.2397 L12.6499,23.2499 L12.6472,23.2611 L12.6651,23.6906 L12.6699,23.7034 L12.6784,23.7105 L12.8793,23.8032 C12.8914,23.8069 12.9022,23.803 12.9078,23.7952 L12.9118,23.7812 L12.8777,23.1665 C12.8753,23.1546 12.8674,23.147 12.8584,23.1453 Z M12.143,23.1473 C12.1332,23.1424 12.1222,23.1453 12.1156,23.1526 L12.1099,23.1665 L12.0758,23.7812 C12.0751,23.7927 12.0828,23.8019 12.0926,23.8046 L12.1083,23.8032 L12.3092,23.7105 L12.3186,23.7024 L12.3225,23.6906 L12.3404,23.2611 L12.3372,23.2485 L12.3278,23.2397 L12.143,23.1473 Z" id="MingCute" fill-rule="nonzero"></path>
                <path d="M13.4062,4.01484 C14.4664,4.19938 15.4555,4.58948 16.3308,5.14191 C16.7915,4.52195 17.5294,4.12027 18.3611,4.12027 C19.3189,4.12027 20.1507,4.65238 20.5797,5.43618 C21.4165,5.80777 22,6.64522 22,7.62025 C22,8.85301 21.0662,9.86767 19.8674,9.99554 C20.0317,10.6392 20.1189,11.3132 20.1189,12.0067 C20.1189,16.487 16.4869,20.119 12.0066,20.119 L11.8242,20.117 L11.8242,20.117 C11.2068,20.6655 10.3922,21.0001 9.5,21.0001 L5,21.0001 C3.34315,21.0001 2,19.657 2,18.0001 C2,16.882 2.6111,15.9082 3.51687,15.3921 C3.69712,13.489 5.29969,12.0001 7.25,12.0001 C7.95276,12.0001 8.61183,12.1942 9.17466,12.5313 C11.2702,11.8517 12.7847,9.88245 12.7847,7.56161 C12.7847,6.79335 12.6194,6.06639 12.3235,5.41208 C12.1709,5.07457 12.2174,4.68033 12.4442,4.38753 C12.6711,4.09473 13.0413,3.95132 13.4062,4.01484 Z M7.25,14.0001 C6.2835,14.0001 5.5,14.7836 5.5,15.7501 L5.50277125,15.8499625 L5.50277125,15.8499625 L5.51095,15.9478 C5.56233769,16.4078615 5.29183852,16.8374189 4.86706927,16.9956376 L4.75776,17.0294 C4.32202,17.1375 4,17.5324 4,18.0001 C4,18.5524 4.44772,19.0001 5,19.0001 L9.5,19.0001 C9.9642,19.0001 10.3786,18.7905 10.6553,18.457 C10.8711,18.1969 11,17.8649 11,17.5001 C11,16.8020375 10.5223145,16.2138383 9.87595856,16.0473767 L9.74453,16.0198 C9.35688,15.9566 9.04214,15.6723 8.93996,15.293 C8.84402,14.937 8.63719,14.6238 8.35661,14.3943 C8.05473,14.1475 7.67091,14.0001 7.25,14.0001 Z M14.7105,6.52319 C14.7594,6.86252 14.7847,7.20926 14.7847,7.56161 C14.7847,10.4579 13.0807,12.9545 10.6212,14.1063 L10.6649,14.199 L10.6649,14.199 C12.0253,14.6791 13,15.9751 13,17.5001 C13,17.6855 12.9855,17.8677 12.9577,18.0454 C15.8817,17.5886 18.1189,15.0589 18.1189,12.0067 C18.1189,11.0845 17.9153,10.2126 17.5516,9.43108 C17.2147,8.70725 16.7397,8.05954 16.16,7.5223 C15.7293,7.12316 15.2415,6.78562 14.7105,6.52319 Z M18.3611,6.12027 C18.1523,6.12027 17.9718,6.24153 17.8862,6.41746 C18.3412,6.89598 18.7386,7.43022 19.067,8.00913 L19.6111,8.00913 C19.8259,8.00913 20,7.83501 20,7.62025 C20,7.42793 19.8594,7.26652 19.6754,7.23651 C19.3308667,7.18030556 19.0438543,6.94942062 18.912549,6.63245436 L18.8708,6.50973 C18.8102,6.28464 18.6036,6.12027 18.3611,6.12027 Z" id="形状" fill="#09244B"></path>
            </g>
        </g>
    </g>
</svg>

<svg xmlns="http://www.w3.org/2000/svg" width="24" height="24"><g fill="none" fill-rule="evenodd"><path d="M24 0v24H0V0h24ZM12.594 23.258l-.012.002-.071.035-.02.004-.014-.004-.071-.036c-.01-.003-.019 0-.024.006l-.004.01-.017.428.005.02.01.013.104.074.015.004.012-.004.104-.074.012-.016.004-.017-.017-.427c-.002-.01-.009-.017-.016-.018Zm.264-.113-.014.002-.184.093-.01.01-.003.011.018.43.005.012.008.008.201.092c.012.004.023 0 .029-.008l.004-.014-.034-.614c-.003-.012-.01-.02-.02-.022Zm-.715.002a.023.023 0 0 0-.027.006l-.006.014-.034.614c0 .012.007.02.017.024l.015-.002.201-.093.01-.008.003-.011.018-.43-.003-.012-.01-.01-.184-.092Z"/><path fill="#09244B" d="M13.406 4.015c1.06.184 2.05.574 2.925 1.127a2.526 2.526 0 0 1 4.249.294 2.388 2.388 0 0 1-.713 4.56 8.112 8.112 0 0 1-7.86 10.123l-.183-.002A3.49 3.49 0 0 1 9.5 21H5a3 3 0 0 1-1.483-5.608 3.75 3.75 0 0 1 5.658-2.86 5.226 5.226 0 0 0 3.148-7.12 1 1 0 0 1 1.083-1.397ZM7.25 14a1.75 1.75 0 0 0-1.75 1.75l.003.1.008.098a1 1 0 0 1-.644 1.048l-.11.033A1 1 0 0 0 5 19h4.5c.464 0 .879-.21 1.155-.543a1.501 1.501 0 0 0-.78-2.41l-.13-.027a1 1 0 0 1-.805-.727A1.752 1.752 0 0 0 7.25 14Zm7.46-7.477a7.223 7.223 0 0 1-4.09 7.583l.045.093a3.5 3.5 0 0 1 2.293 3.846A6.114 6.114 0 0 0 14.71 6.523Zm3.651-.403a.528.528 0 0 0-.475.297 8.138 8.138 0 0 1 1.181 1.592h.544a.389.389 0 0 0 .064-.772 1 1 0 0 1-.762-.605l-.042-.122a.528.528 0 0 0-.51-.39Z"/></g></svg>
